resources/icons/20px/color-fill.svg

<svg width="20" height="20" viewBox="0 0 20 20" fill="none" xmlns="http://www.w3.org/2000/svg">
<path fill-rule="evenodd" clip-rule="evenodd" d="M2.18818 9L14.1716 9L8 2.82843L3.41421 7.41421C2.81124 8.01719 2.40515 8.48049 2.18818 9ZM8 0L6.58579 1.41421L2 6C1 7 0 8.10976 0 10C0 12 1 13 2 14L3 15C4 16 5 17 7 17C9.00883 17 9.91807 16.0866 10.8676 15.1328L10.8676 15.1328L11 15L15.5858 10.4142L17 9L15.5858 7.58579L9.41421 1.41421L8 0ZM18.5 13.5L17 11L15.5 13.5C15.1823 14.0295 15 14.5 15 15C15 16 15.5 17 17 17C18.5 17 19 16 19 15C19 14.5 18.8177 14.0295 18.5 13.5ZM1 18C0.447715 18 0 18.4477 0 19C0 19.5523 0.447715 20 1 20H19C19.5523 20 20 19.5523 20 19C20 18.4477 19.5523 18 19 18H1Z" fill="black"/>
</svg>

<svg xmlns="http://www.w3.org/2000/svg" viewBox="0 0 20 20">
  <path d="M2.188 9h11.984L8 2.828 3.414 7.414C2.811 8.017 2.405 8.48 2.188 9M8 0 6.586 1.414 2 6c-1 1-2 2.11-2 4 0 2 1 3 2 4l1 1c1 1 2 2 4 2 2.009 0 2.918-.913 3.868-1.867L11 15l4.586-4.586L17 9l-1.414-1.414-6.172-6.172zm10.5 13.5L17 11l-1.5 2.5c-.318.53-.5 1-.5 1.5 0 1 .5 2 2 2s2-1 2-2c0-.5-.182-.97-.5-1.5M1 18a1 1 0 1 0 0 2h18a1 1 0 1 0 0-2z"/>
</svg>
